packages/gestalt-icons-android/vr-theme/ic_vr_3d_gestalt.svg

<svg width="24" height="24" viewBox="0 0 24 24" fill="none" xmlns="http://www.w3.org/2000/svg">
<path d="M5.79956 10.0205C8.52637 10.0205 10.3985 11.7095 10.3985 14.5787C10.3985 17.4276 8.30253 19.3812 5.25013 19.3812C2.44192 19.3812 0.549432 18.0992 0 16.0032L1.91284 15.1282C2.34017 16.7561 3.43904 17.5497 5.25013 17.5497C7.10192 17.5497 8.34323 16.3695 8.34323 14.5991C8.34323 12.6659 7.16297 11.5467 5.33153 11.5467C4.41581 11.5467 3.56113 11.8112 2.86926 12.2182L2.19773 10.692L6.89843 6.58144H0.651179V4.75H9.78803V6.17445L5.33153 10.0612C5.49432 10.0408 5.63677 10.0205 5.79956 10.0205Z" fill="black"/>
<path d="M11.8107 19.0963V4.75H16.7149C21.029 4.75 24 7.61926 24 11.974C24 16.2677 21.029 19.0963 16.7149 19.0963H11.8107ZM13.7439 6.54074V17.3259H16.6742C19.6859 17.3259 21.9651 15.3927 21.9651 11.974C21.9651 8.51463 19.6859 6.54074 16.6742 6.54074H13.7439Z" fill="black"/>
</svg>

<svg xmlns="http://www.w3.org/2000/svg" width="24" height="24"><path d="M5.8 10.02c2.73 0 4.6 1.69 4.6 4.56 0 2.85-2.1 4.8-5.15 4.8C2.45 19.38.55 18.1 0 16l1.91-.87q.64 2.43 3.34 2.42c1.85 0 3.1-1.18 3.1-2.95 0-1.93-1.19-3.05-3.02-3.05-.91 0-1.77.26-2.46.67l-.67-1.53 4.7-4.1H.65V4.74H9.8v1.42l-4.46 3.9q.23-.05.47-.05m6.01 9.08V4.75h4.9c4.32 0 7.29 2.87 7.29 7.22 0 4.3-2.97 7.13-7.29 7.13zm1.93-12.56v10.79h2.93c3.02 0 5.3-1.94 5.3-5.36 0-3.46-2.28-5.43-5.3-5.43z"/></svg>
